X: 18
T: JIGS: Kilmovee Set
T: Kilmovee
C: C: Trad.; S: Conal O'Grada
C: Set Leaders: Mars
Z: Mars Agliullin ed., Oleg Naumov arr., Anton Zille arr.; Phantom Button / Jeremy at The Session
N: https://thesession.org/members/26966/sets/94271
R: Jig
M: 6/8
L: 1/8
Q: 3/8=116
K: Gmaj
D|:"G"~G3 ~B3|"(Em)"GAB AGE|"C"DGB deg|"D"ege edB|
"G"~G3 Bge|"(Em)"dBG AGE|"C"DGB deg|1 "D"edB "(Em)"G2D:|2 "D"edB "(G)"G3||
|:"G (Em)"~g3 dBG|"Em (D)"ABA AGE|"C"GBd g2f|"D"eag fed|
"Em"B2e dBA|"Bm"GAB GED|"C"GAB deg|1 "D"edB "G"G3:|2 "D"edB "G"G2z||
T: Lilting Fisherman
K: Gmaj
|:"G"dBG GBd|~g3 "(C)"~e3|"C (G)"dBG GFG|"D"AFD cBA|
"G (Em)"dBG GBd|~g3 ~e3|"C"dBG "D"FGA|1 "G"BGF G2B:|2 "G"BGF G3||
K: Dmaj
|:"D"~A3 AFA|~f3 f2e|"G"dce dcB|"A"AFF F2G|
"D"~A3 AFA|"G"~B3 B2e|"A"cec ABc|1 "D"dfe d2B:|2 "D"dfe "(A)"dfe||

